X: 1
T: The Lilting Banshee
R: jig
M: 6/8
L: 1/8
K: Ador
|:"Am"EAA EAA |"G"BAB G2A |"Em"Bee edB |"D"def "G"gfg     |
|"Am"eAA eAA  |"G"BAB G2A |"Em"Bee edB |1"G"dBA "Am"A2 G :|2"G"dBA "Am"A2 g |]
|:"Am"eaa age |"G"dBA G2A |"Em"Bee edB |"D"def "G"gfg     |
|"Am"eaa age  |"G"dBA G2A |"Em"Bee edB |1"G"dBA "Am"A2 g :|2"G"dBA "Am"A2   |]
